svg/u23ed.svg

<svg viewBox="0 0 128 128" xmlns="http://www.w3.org/2000/svg">
  <g>
    <path d="M116.46,4h-104c-4.42,0-8,3.58-8,8v104c0,4.42,3.58,8,8,8h104c4.42,0,8-3.58,8-8V12 C124.46,7.58,120.88,4,116.46,4z" fill="#F77E00"/>
    <path d="M110.16,4h-98.2c-4.13,0.03-7.47,3.37-7.5,7.5v97.9c-0.01,4.14,3.34,7.49,7.48,7.5 c0.01,0,0.01,0,0.02,0h98.1c4.14,0.01,7.49-3.34,7.5-7.48c0-0.01,0-0.01,0-0.02V11.5c0.09-4.05-3.13-7.41-7.18-7.5 C110.31,4,110.23,4,110.16,4z" fill="#FF9800"/>
    <path d="M107.56,36h-10.2c-1.05,0-1.9,0.85-1.9,1.9v0v23.5l-35.9-25c-0.98-0.58-2.24-0.26-2.82,0.72 c-0.23,0.39-0.33,0.84-0.28,1.28v22.3l-35-24.4c-1.4-0.9-3,0.2-3,2v51.4c0,1.8,1.7,2.9,3,2l35-24.4v22.3 c-0.13,1.13,0.69,2.15,1.82,2.28c0.45,0.05,0.9-0.05,1.28-0.28l35.9-25v23.5c0,1.05,0.85,1.9,1.9,1.9l0,0h10.3 c1.05,0,1.9-0.85,1.9-1.9l0,0V37.9C109.51,36.83,108.63,36,107.56,36z" fill="#FAFAFA"/>
    <path d="M40.16,12.9c0-2.3-1.6-3-10.8-2.7c-7.7,0.3-11.5,1.2-13.8,4 s-2.9,8.5-3,15.3c0,4.8,0,9.3,2.5,9.3c3.4,0,3.4-7.9,6.2-12.3C26.66,17.8,40.16,15.9,40.16,12.9z" opacity="0.75" fill="#FFBD52" enable-background="new "/>
  </g>
</svg>

<svg viewBox="0 0 128 128" xmlns="http://www.w3.org/2000/svg">
  <defs/>
  <path d="M116.46,4 L12.46,4 C8.04,4 4.46,7.58 4.46,12 L4.46,116 C4.46,120.42 8.04,124 12.46,124 L116.46,124 C120.88,124 124.46,120.42 124.46,116 L124.46,12 C124.46,7.58 120.88,4 116.46,4 Z" fill="#F77E00"/>
  <path d="M110.16,4 L11.96,4 C7.83,4.03 4.49,7.37 4.46,11.5 L4.46,109.4 C4.45,113.54 7.8,116.89 11.94,116.9 C11.95,116.9 11.95,116.9 11.96,116.9 L110.06,116.9 C114.2,116.91 117.55,113.56 117.56,109.42 C117.56,109.41 117.56,109.41 117.56,109.4 L117.56,11.5 C117.65,7.45 114.43,4.09 110.38,4 C110.31,4 110.23,4 110.16,4 Z" fill="#FF9800"/>
  <path d="M107.56,36 L97.36,36 C96.31,36 95.46,36.85 95.46,37.9 L95.46,37.9 L95.46,61.4 L59.56,36.4 C58.58,35.82 57.32,36.14 56.74,37.12 C56.51,37.51 56.41,37.96 56.46,38.4 L56.46,60.7 L21.46,36.3 C20.06,35.4 18.46,36.5 18.46,38.3 L18.46,89.7 C18.46,91.5 20.16,92.6 21.46,91.7 L56.46,67.3 L56.46,89.6 C56.33,90.73 57.15,91.75 58.28,91.88 C58.73,91.93 59.18,91.83 59.56,91.6 L95.46,66.6 L95.46,90.1 C95.46,91.15 96.31,92 97.36,92 L97.36,92 L107.66,92 C108.71,92 109.56,91.15 109.56,90.1 L109.56,90.1 L109.56,37.9 C109.51,36.83 108.63,36 107.56,36 Z" fill="#FAFAFA"/>
  <path d="M40.16,12.9 C40.16,10.6 38.56,9.9 29.36,10.2 C21.66,10.5 17.86,11.4 15.56,14.2 C13.26,17 12.66,22.7 12.56,29.5 C12.56,34.3 12.56,38.8 15.06,38.8 C18.46,38.8 18.46,30.9 21.26,26.5 C26.66,17.8 40.16,15.9 40.16,12.9 Z" fill="#FFBD52" opacity="0.75"/>
</svg>
